!!!COM: Haydn, Franz Joseph
!!!OPR: Symphony in B-flat Major
!!!OTL: Affettuoso 
!!!OMV: 1a
!!!SCT: H I:85
!!!SCA: Thematisch-bibliographisches Werkevererzeichnis (A. van Hoboken)
!!!YOR: RISM H 3039, Choron Edition
!!!EED: Frances Bennion
!!!ENC: Frances Bennion
!!!CDT: 1732/3/31/-1809/5/31/
!!!OCY: Österreich
!!!YEC: Copyright (c) 1994, 2000 Center for Computer Assisted Research in the Humanities
!!!YEM: Rights to all derivative editions reserved.
!!!YEM: Refer to licensing agreement for further details.
!!!YEN: United States of America
**kern	**kern	**kern	**kern	**kern	**kern	**kern	**kern	**kern	**kern
*k[]	*k[b-e-]	*k[]	*k[b-e-]	*k[b-e-]	*k[b-e-]	*k[b-e-]	*k[b-e-]	*k[b-e-]	*k[b-e-]
*C:	*C:	*C:	*C:	*C:	*C:	*C:	*C:	*C:	*C:
*clefF	*clefF4	*clefF	*clefF	*clefF	*clefF	*clefF4	*clefF	*clefF	*clefC3
*M2/2	*M2/2	*M2/2	*M2/2	*M2/2	*M2/2	*M2/2	*M2/2	*M2/2	*M2/2
*tb32	*tb32	*tb32	*tb32	*tb32	*tb32	*tb32	*tb32	*tb32	*tb32
=0-	=0-	=0-	=0-	=0-	=0-	=0-	=0-	=0-	=0-
2..r	2..r	2..r	2..r	2..r	2..r	2..r	2..r	2..r	2..r
16r	16r	16r	16r	16r	16r	16r	16r	16r	16r
16cc	16BB-	16c	16bb-	16b-	16bb-	16BB-	16bb- 16b-	16b- 16bb-	16B-
=1	=1	=1	=1	=1	=1	=1	=1	=1	=1
4cc	4BB-	4c	4bb-	4b-	4bb-	4BB-	4b- 4bb-	4bb- 4b-	4B-
2.r	8.r	2.r	8.r	8.r	8.r	8.r	8.r	8.r	8.r
.	16AA	.	16a	16a	16a	16AA	16A	16A	16A
.	8.BB-	.	8.b-	8.b-	8.b-	8.BB-	8.B-	8.B-	8.B-
.	16C#	.	16cc#	16cc#	16cc#	16C#	16c#	16c#	16c#
.	8.D	.	8.dd	8.dd	8.dd	8.D	8.d	8.d	8.d
.	16F#	.	16ff#	16ff#	16ff#	16F#	16f#	16f#	16f#
=2	=2	=2	=2	=2	=2	=2	=2	=2	=2
2..r	2G	2..r	2gg	2gg	2gg	2G	2g	2g	2g
.	4..r	.	4..r	4..r	4..r	4..r	4..r	4..r	4..r
16r	.	16r	.	.	.	.	.	.	.
16cc	16E-	16c	16gg	16b-	16gg	16E-	16gg 16b-	16b- 16gg	16e-
=3	=3	=3	=3	=3	=3	=3	=3	=3	=3
4cc	4E-	4c	4gg	4b-	4gg	4E-	4gg 4b-	4gg 4b-	4e-
2.r	8.r	2.r	8.r	8.r	8.r	8.r	8.r	8.r	8.r
.	16D	.	16dd	16dd	16dd	16D	16d	16d	16d
.	8.E-	.	8.ee-	8.ee-	8.ee-	8.E-	8.e-	8.e-	8.e-
.	16F#	.	16ff#	16ff#	16ff#	16F#	16f#	16f#	16f#
.	8.G	.	8.gg	8.gg	8.gg	8.G	8.g	8.g	8.g
.	16A	.	16aa	16aa	16aa	16A	16a	16a	16a
=4	=4	=4	=4	=4	=4	=4	=4	=4	=4
1cc	8B-	1e	1bb-	4bb-	1bb-	1B-	[4b-	8b-	8b-
.	8B-	.	.	.	.	.	.	8b- 8d	8f
.	8B-	.	.	2dd	.	.	16b-]	8b- 8d	8f
.	.	.	.	.	.	.	32cc	.	.
.	.	.	.	.	.	.	32dd	.	.
.	8B-	.	.	.	.	.	32ee-	8b- 8d	8f
.	.	.	.	.	.	.	32ff	.	.
.	.	.	.	.	.	.	32gg	.	.
.	.	.	.	.	.	.	32aa	.	.
.	8B-	.	.	.	.	.	8.bb-	8b- 8d	8f
.	8B-	.	.	.	.	.	.	8d 8b-	8f
.	.	.	.	.	.	.	16bb-	.	.
.	8B-	.	.	4dd	.	.	8.bb-	8b- 8d	8f
.	8B-	.	.	.	.	.	.	8b- 8d	8f
.	.	.	.	.	.	.	16bb-	.	.
=5	=5	=5	=5	=5	=5	=5	=5	=5	=5
1cc	8G	1e	1bb-	1dd	1bb-	1G	[4b-	8b- 8d	8g
.	8G	.	.	.	.	.	.	8b- 8d	8g
.	8G	.	.	.	.	.	16b-]	8b- 8d	8g
.	.	.	.	.	.	.	32cc	.	.
.	.	.	.	.	.	.	32dd	.	.
.	8G	.	.	.	.	.	32ee-	8b- 8d	8g
.	.	.	.	.	.	.	32ff	.	.
.	.	.	.	.	.	.	32gg	.	.
.	.	.	.	.	.	.	32aa	.	.
.	8G	.	.	.	.	.	8.bb-	8b- 8d	8g
.	8G	.	.	.	.	.	.	8b- 8d	8g
.	.	.	.	.	.	.	16bb-	.	.
.	8G	.	.	.	.	.	8.bb-	8d 8b-	8g
.	8G	.	.	.	.	.	.	8b- 8d	8g
.	.	.	.	.	.	.	16bb-	.	.
=6	=6	=6	=6	=6	=6	=6	=6	=6	=6
1cc	8E	1c	1bb-	1gg	1bb-	2.g	[4b-	8e 8dd-	8g
.	8E	.	.	.	.	.	.	8e 8dd-	8g
.	8E	.	.	.	.	.	16b-]	8e 8dd-	8g
.	.	.	.	.	.	.	32cc	.	.
.	.	.	.	.	.	.	32dd-	.	.
.	8E	.	.	.	.	.	32ee-	8e 8dd-	8g
.	.	.	.	.	.	.	32ff	.	.
.	.	.	.	.	.	.	32gg	.	.
.	.	.	.	.	.	.	32aa	.	.
.	8E	.	.	.	.	.	8.bb-	8e 8dd-	8g
.	8E	.	.	.	.	.	.	8dd- 8e	8g
.	.	.	.	.	.	.	16bb-	.	.
.	8E	.	.	.	.	4e	8.bb-	8e 8dd-	8g
.	8E	.	.	.	.	.	.	8e 8dd-	8g
.	.	.	.	.	.	.	16bb-	.	.
=7	=7	=7	=7	=7	=7	=7	=7	=7	=7
4g	8F	4G	4aa	2ff	4aa	4f	8.aa	8.cc 8.f	8.f
.	8F	.	.	.	.	.	.	.	.
.	.	.	.	.	.	.	16aa	16cc	16f
2.r	8F	2.r	4ff	.	4ff	4A	8.ff	8.ff	8.A
.	8F	.	.	.	.	.	.	.	.
.	.	.	.	.	.	.	16ff	16ff	16A
.	8F	.	4gg	4ee	4gg	4B-	8.gg	8.ee	8.B-
.	8F	.	.	.	.	.	.	.	.
.	.	.	.	.	.	.	16gg	16ee	16B-
.	8F	.	4aa	4ee-	4aa	4c	8.aa	8.ee-	8.c
.	8F	.	.	.	.	.	.	.	.
.	.	.	.	.	.	.	16aa	16ee-	16c
=8	=8	=8	=8	=8	=8	=8	=8	=8	=8
4g	8F	4G	4bb-	4dd	4bb-	4d	8.bb-	8.dd	8.d
.	8F	.	.	.	.	.	.	.	.
.	.	.	.	.	.	.	16bb-	16dd	16d
2.r	8F	2.r	4ccc	4aa	4ccc	4c	8.ccc	8.a	8.f
.	8F	.	.	.	.	.	.	.	.
.	.	.	.	.	.	.	16ccc	16a	16f
.	8F	.	4ddd	4bb-	4ddd	4B-	8.ddd	8.b-	8.f
.	8F	.	.	.	.	.	.	.	.
.	.	.	.	.	.	.	16ddd	16b-	16f
.	8F	.	4ee	4b-	4ee	4c	8.ee	8.b- 8.g	8.f
.	8F	.	.	.	.	.	.	.	.
.	.	.	.	.	.	.	16ee	16g 16b-	16f
=9	=9	=9	=9	=9	=9	=9	=9	=9	=9
[1g	8F	[1G	[1ff	[1f	[1ff	1F	4ff	4f 4a	8f
.	8F	.	.	.	.	.	.	.	8f
.	8F	.	.	.	.	.	8.r	8.r	8f
.	8F	.	.	.	.	.	.	.	8f
.	.	.	.	.	.	.	16dd	16b-	.
.	8F	.	.	.	.	.	8.cc	8.a	8f
.	8F	.	.	.	.	.	.	.	8f
.	.	.	.	.	.	.	16dd	16b-	.
.	8F	.	.	.	.	.	8.cc	8.a	8f
.	8F	.	.	.	.	.	.	.	8f
.	.	.	.	.	.	.	16dd	16b-	.
=10	=10	=10	=10	=10	=10	=10	=10	=10	=10
1g]	8FF	1G]	4ff]	4f]	4ff]	[1FF	4cc	4a	8F
.	8FF	.	.	.	.	.	.	.	8F
.	8FF	.	8.r	8.r	8.r	.	8.r	8.r	8F
.	8FF	.	.	.	.	.	.	.	8F
.	.	.	16dd	16b-	16dd	.	16d	16B-	.
.	8FF	.	8.cc	8.a	8.cc	.	8.c	8.A	8F
.	8FF	.	.	.	.	.	.	.	8F
.	.	.	16dd	16b-	16dd	.	16d	16B-	.
.	8FF	.	8.cc	8.a	8.cc	.	8.c	8.A	8F
.	8FF	.	.	.	.	.	.	.	8F
.	.	.	16dd	16b-	16dd	.	16d	16B-	.
=11	=11	=11	=11	=11	=11	=11	=11	=11	=11
1g	1FF	1G	1a	1f	1a	1FF]	1c	1A	1F
==	==	==	==	==	==	==	==	==	==
*-	*-	*-	*-	*-	*-	*-	*-	*-	*-
!!!RWG1: This file contains only pitch and duration data.
!!!RWG2: Transposing instruments are not transposed.
!!!RWG3: Spines may have incompatible meters.
!!!RWG4: Durations of rests and tied notes may be interpreted.
!!!RWG: Key is interpreted using the Humdrum key tool.
!!!OPT: La Reine
!!!AFT: stage1
!!!END: 1997/04/15
!!format changes:
!!content changes:
!!public access: complete
!!!KEY: 3488531406
!!!EMD: Converted from MuseData to Humdrum Dec 16, 2000, by Andreas Kornstaedt using muse2kern.
